src/components/Icon/svg-icon/main/numbers.svg

<svg xmlns="http://www.w3.org/2000/svg" xmlns:xlink="http://www.w3.org/1999/xlink" width="24" height="24" viewBox="0 0 24 24">
  <defs>
    <path id="numbers-a" d="M18.9991283,4 C19.5518945,4 20,4.44463086 20,5.00087166 L20,18.9991283 C20,19.5518945 19.5553691,20 18.9991283,20 L5.00087166,20 C4.4481055,20 4,19.5553691 4,18.9991283 L4,5.00087166 C4,4.4481055 4.44463086,4 5.00087166,4 L18.9991283,4 Z M7,8 L6,8 L6,9 L7,9 L7,16 L8,16 L8,8.99703014 C8,8.45303631 7.55228475,8 7,8 Z M12.0010434,8 L10.9989566,8 C10.4823958,8 10.063817,8.38604019 10.0066555,8.88337887 L10,9 L12,9 L12,11 L11,11 C10.4835888,11 10.0639821,11.3859659 10.006673,11.8832088 L10,11.9998075 L10,15.0001925 C10,15.5165626 10.3856374,15.9360386 10.8824571,15.9933292 L10.9989566,16 L12.0010434,16 C12.5176042,16 12.936183,15.6139598 12.9933445,15.1166211 L13,15 L11,15 L11,12 L12,12 C12.5164112,12 12.9360179,11.610343 12.993327,11.1083448 L13,10.9906311 L13,9.0093689 C13,8.44335318 12.5527519,8 12.0010434,8 Z M17.0010434,8 L15.9989566,8 C15.4426603,8 15,8.44771525 15,9 L15,9 L17,9 L17,11 L15,11 L15,12 L17,12 L17,15 L15,15 L15.0067207,15.1156103 C15.0644255,15.6092427 15.4866558,16 15.9989566,16 L15.9989566,16 L17.0010434,16 C17.5573397,16 18,15.5536144 18,15.0029699 L18,15.0029699 L18,8.99703014 C18,8.45303631 17.5527519,8 17.0010434,8 L17.0010434,8 Z"/>
  </defs>
  <use fill="#677078" xlink:href="#numbers-a"/>
</svg>

<svg xmlns="http://www.w3.org/2000/svg" xmlns:xlink="http://www.w3.org/1999/xlink" width="24" height="24"><defs><path id="a" d="M19 4c.552 0 1 .445 1 1v14c0 .552-.445 1-1 1H5c-.552 0-1-.445-1-1V5c0-.552.445-1 1-1h14zM7 8H6v1h1v7h1V8.997C8 8.453 7.552 8 7 8zm5.001 0h-1.002a.996.996 0 00-.992.883L10 9h2v2h-1a.997.997 0 00-.993.883L10 12v3c0 .517.386.936.882.993L11 16h1.002a.996.996 0 00.992-.883L13 15h-2v-3h1a1 1 0 00.993-.892l.007-.117V9.009A.999.999 0 0012.001 8zm5 0h-1.002A.997.997 0 0015 9h2v2h-2v1h2v3h-2l.007.116c.057.493.48.884.992.884h1.002a.995.995 0 00.999-.997V8.997c0-.544-.447-.997-.999-.997z"/></defs><use fill="#677078" xlink:href="#a"/></svg>
